Catalina-light/places/16/folder-public.svg

<svg width="36" height="36" version="1.1" xmlns="http://www.w3.org/2000/svg">
<g transform="translate(-442,-156)">
<path d="m460 156.75a17.25 17.25 0 0 0-17.25 17.25 17.25 17.25 0 0 0 17.25 17.25 17.25 17.25 0 0 0 17.25-17.25 17.25 17.25 0 0 0-17.25-17.25zm0 1.9167a15.333 15.333 0 0 1 15.333 15.333 15.333 15.333 0 0 1-15.333 15.333 15.333 15.333 0 0 1-15.333-15.333 15.333 15.333 0 0 1 15.333-15.333z" fill-opacity=".63866"/>
<path transform="translate(442,156)" d="m18 2.666c-8.4684 0-15.334 6.8656-15.334 15.334 1e-5 8.4684 6.8656 15.334 15.334 15.334s15.334-6.8656 15.334-15.334c-1e-5 -8.4684-6.8656-15.334-15.334-15.334zm-3.9219 3.1973c0.19272 0 0.38919 0.020094 0.58594 0.058594 1.5783 0.3124 2.6133 1.8494 2.2969 3.4277-0.31243 1.5783-1.8551 2.6054-3.4375 2.293-1.5783-0.31242-2.6054-1.8494-2.293-3.4277 0.23534-1.1848 1.1637-2.0617 2.2754-2.293h0.003907c0.18461-0.0378 0.37553-0.058594 0.56836-0.058594zm3.707 5.6992c0.18815 0.0044 0.37225 0.029366 0.55078 0.072266l4.0176 0.73438c0.11759 0.02076 0.22833 0.060481 0.33789 0.11328l2.9238 1.4141c0.66139 0.32054 0.94161 1.1179 0.62109 1.7793-0.23128 0.47472-0.70812 0.75195-1.2031 0.75195-0.19467 0-0.39347-0.045465-0.58008-0.13476l-2.7578-1.334-1.2285-0.22852 0.94531 4.4375c0.0165 0.08936 0.03376 0.17632 0.00586 0.26562l1.7012 4.3926 3.5918 3.0078c0.66937 0.56398 0.75718 1.5628 0.19726 2.2363-0.31242 0.3733-0.76236 0.5625-1.2168 0.5625-0.3611 0-0.72139-0.11757-1.0176-0.36914l-3.9004-3.2754c-0.20275-0.17045-0.36364-0.39312-0.46094-0.64062l-1.2148-3.1309c-0.0245 3.9e-4 -0.057537 0-0.085937 0l-2.3926 2.0957-0.67578 4.4727c-0.11764 0.78308-0.7916 1.3516-1.5625 1.3516-0.08126 0-0.16685-0.006078-0.24805-0.017578-0.86423-0.13378-1.4502-0.93852-1.3203-1.8027l0.76172-5.0508c0.05674-0.36922 0.24153-0.70578 0.52148-0.94922l2.3242-2.041c0-0.0162-0.008672-0.033888-0.013672-0.054688l-0.9043-4.248-1.2031 0.94141c-0.12571 0.097341-0.26975 0.172-0.42383 0.2207l-3.4238 1.0723c-0.13379 0.0046-0.27053 0.06836-0.40039 0.06836-0.56804 0-1.0871-0.36946-1.2656-0.9375-0.21913-0.70194 0.16717-1.4567 0.86914-1.6758l3.1992-0.99609 3.1934-2.4961c0.0245-0.0208 0.057538-0.037794 0.085937-0.058594 0.29619-0.23531 0.64744-0.40513 1.041-0.49023l0.039063-0.00586c0.19274-0.0402 0.38404-0.057734 0.57226-0.052734z" fill-opacity=".425"/>
<path transform="translate(442,156)" d="m14.078 4.8633c-0.19872 0-0.38737 0.029294-0.57617 0.058594h-0.099609l-0.091797 0.019531-0.009766 0.0019532c-1.4967 0.31133-2.7359 1.4912-3.0508 3.0762-0.4175 2.1092 0.96975 4.1858 3.0801 4.6035 0.17601 0.0348 0.34293-0.012253 0.51758-0.001953l-1.4668 1.1445-3.0254 0.94141c-1.2258 0.38265-1.905 1.7137-1.5254 2.9297 0.30771 0.97907 1.2196 1.6387 2.2207 1.6387 0.45329 0 0.59164-0.07366 0.43555-0.06836l0.13477-0.005859 3.5547-1.1113v-0.001953c0.24366-0.077 0.46948-0.20133 0.67774-0.35352l0.46484 2.1777-1.8789 1.6484c-0.46031 0.40027-0.76088 0.95191-0.85352 1.5547l-0.76172 5.0527c-0.20905 1.3912 0.75898 2.7235 2.1543 2.9395h0.007812l0.00586 0.001953c0.12173 0.0172 0.24998 0.027344 0.38867 0.027344 1.2619 0 2.3595-0.93383 2.5508-2.2012v-0.001953l0.62109-4.1113 1.1055-0.96875 0.72266 1.8594 0.001953 0.001953c0.159 0.40444 0.414 0.75988 0.74609 1.0391l3.8984 3.2715c0.4842 0.41125 1.0854 0.60742 1.6641 0.60742 0.73292 0 1.476-0.31449 1.9844-0.92187v-0.001954h0.001953c0.9032-1.0865 0.75792-2.7286-0.32226-3.6387l-0.001953-0.001953-3.3945-2.8438-1.5703-4.0508c-8e-3 -0.0454 0.009859-0.16553 0.005859-0.1875l-0.001953-0.013672-0.60938-2.8613 2.2363 1.082 0.001953 0.001953c0.31718 0.15178 0.66 0.23242 1.0117 0.23242 0.8689 0 1.7026-0.49149 2.1035-1.3145v-0.001953c0.55809-1.1516 0.061302-2.5592-1.0859-3.1152l-2.9238-1.4141-0.001953-0.001953c-0.17344-0.0836-0.37474-0.15596-0.59766-0.19531l-3.6074-0.66016 0.019531-0.13281-1.127-0.029297c-1e-3 -3e-5 -0.002906 3e-5 -0.003906 0-0.10419-3e-3 -0.20376 0.022197-0.30664 0.029297 0.17778-0.33084 0.36284-0.65888 0.43945-1.0449v-0.0019531c0.42247-2.1128-0.97497-4.1861-3.084-4.6035l-0.001953-0.0019531c-0.25532-0.05-0.51508-0.076172-0.77734-0.076172zm0 1c0.19272 0 0.38919 0.020094 0.58594 0.058594 1.5783 0.3124 2.6133 1.8494 2.2969 3.4277-0.31243 1.5783-1.8551 2.6054-3.4375 2.293-1.5783-0.31242-2.6054-1.8494-2.293-3.4277 0.23534-1.1848 1.1637-2.0617 2.2754-2.293h0.003907c0.18461-0.0378 0.37553-0.058594 0.56836-0.058594zm3.707 5.6992c0.18815 0.0044 0.37225 0.029366 0.55078 0.072266l4.0176 0.73438c0.11759 0.02076 0.22833 0.060481 0.33789 0.11328l2.9238 1.4141c0.66139 0.32054 0.94161 1.1179 0.62109 1.7793-0.23128 0.47472-0.70812 0.75195-1.2031 0.75195-0.19467 0-0.39347-0.045465-0.58008-0.13476l-2.7578-1.334-1.2285-0.22852 0.94531 4.4375c0.0165 0.08936 0.03376 0.17632 0.00586 0.26562l1.7012 4.3926 3.5918 3.0078c0.66937 0.56398 0.75718 1.5628 0.19726 2.2363-0.31242 0.3733-0.76236 0.5625-1.2168 0.5625-0.3611 0-0.72139-0.11757-1.0176-0.36914l-3.9004-3.2754c-0.20275-0.17045-0.36364-0.39312-0.46094-0.64062l-1.2148-3.1309c-0.0245 3.9e-4 -0.057537 0-0.085937 0l-2.3926 2.0957-0.67578 4.4727c-0.11764 0.78308-0.7916 1.3516-1.5625 1.3516-0.08126 0-0.16684-0.006078-0.24805-0.017578-0.86423-0.13378-1.4502-0.93852-1.3203-1.8027l0.76172-5.0508c0.05674-0.36922 0.24153-0.70578 0.52148-0.94922l2.3242-2.041c0-0.0162-0.008672-0.033888-0.013672-0.054688l-0.9043-4.248-1.2031 0.94141c-0.12571 0.097342-0.26975 0.172-0.42383 0.2207l-3.4238 1.0723c-0.13379 0.0046-0.27053 0.06836-0.40039 0.06836-0.56804 0-1.0871-0.36946-1.2656-0.9375-0.21913-0.70194 0.16717-1.4567 0.86914-1.6758l3.1992-0.99609 3.1934-2.4961c0.0245-0.0208 0.057538-0.037794 0.085937-0.058594 0.29619-0.23531 0.64744-0.40513 1.041-0.49023l0.039063-0.00586c0.19274-0.0402 0.38404-0.057734 0.57226-0.052734z" color="#000000" color-rendering="auto" dominant-baseline="auto" fill-opacity=".225" image-rendering="auto" shape-rendering="auto" solid-color="#000000" style="font-feature-settings:normal;font-variant-alternates:normal;font-variant-caps:normal;font-variant-ligatures:normal;font-variant-numeric:normal;font-variant-position:normal;isolation:auto;mix-blend-mode:normal;shape-padding:0;text-decoration-color:#000000;text-decoration-line:none;text-decoration-style:solid;text-indent:0;text-orientation:mixed;text-transform:none;white-space:normal"/>
</g>
</svg>

<?xml version="1.0" encoding="UTF-8" standalone="no"?>
<!-- Created with Inkscape (http://www.inkscape.org/) -->

<svg
   xmlns:dc="http://purl.org/dc/elements/1.1/"
   xmlns:cc="http://creativecommons.org/ns#"
   xmlns:rdf="http://www.w3.org/1999/02/22-rdf-syntax-ns#"
   xmlns:svg="http://www.w3.org/2000/svg"
   xmlns="http://www.w3.org/2000/svg"
   xmlns:xlink="http://www.w3.org/1999/xlink"
   xmlns:sodipodi="http://sodipodi.sourceforge.net/DTD/sodipodi-0.dtd"
   xmlns:inkscape="http://www.inkscape.org/namespaces/inkscape"
   id="svg7384"
   sodipodi:docname="folder-public.svg"
   version="1.1"
   inkscape:version="0.92.4 (unknown)"
   height="36"
   width="36">
  <metadata
     id="metadata90">
    <rdf:RDF>
      <cc:Work
         rdf:about="">
        <dc:format>image/svg+xml</dc:format>
        <dc:type
           rdf:resource="http://purl.org/dc/dcmitype/StillImage" />
        <dc:title>Gnome Symbolic Icon Theme</dc:title>
      </cc:Work>
    </rdf:RDF>
  </metadata>
  <sodipodi:namedview
     inkscape:cy="9.0082472"
     pagecolor="#ffffff"
     borderopacity="1"
     showborder="true"
     inkscape:bbox-paths="false"
     guidetolerance="10"
     inkscape:window-width="1920"
     showguides="true"
     inkscape:object-nodes="true"
     inkscape:snap-bbox="true"
     inkscape:pageshadow="2"
     inkscape:guide-bbox="true"
     inkscape:snap-nodes="true"
     bordercolor="#666666"
     objecttolerance="10"
     id="namedview88"
     showgrid="false"
     inkscape:window-maximized="1"
     inkscape:window-x="0"
     inkscape:snap-global="true"
     inkscape:window-y="27"
     gridtolerance="10"
     inkscape:window-height="1016"
     inkscape:snap-to-guides="true"
     inkscape:current-layer="layer13"
     inkscape:zoom="7.9999996"
     inkscape:cx="-9.4219561"
     inkscape:snap-grids="true"
     inkscape:pageopacity="1">
    <inkscape:grid
       spacingx="1"
       spacingy="1"
       id="grid4866"
       empspacing="2"
       enabled="true"
       type="xygrid"
       snapvisiblegridlinesonly="true"
       visible="true"
       originx="0"
       originy="0" />
  </sodipodi:namedview>
  <title
     id="title9167">Gnome Symbolic Icon Theme</title>
  <defs
     id="defs7386">
    <linearGradient
       id="3"
       x1="404.33"
       y1="542.4"
       x2="403.76"
       y2="525.05"
       gradientUnits="userSpaceOnUse"
       gradientTransform="matrix(1.7590513,0,0,1.7590513,-278.68923,-749.15206)">
      <stop
         id="stop4529"
         stop-color="#289bf7" />
      <stop
         id="stop4531"
         stop-color="#4caaf4"
         offset="1" />
    </linearGradient>
    <linearGradient
       gradientUnits="userSpaceOnUse"
       y2="527.62"
       x2="400.56"
       y1="538.78"
       x1="400.85"
       id="4"
       xlink:href="#1"
       gradientTransform="matrix(1.7590513,0,0,1.7590513,-278.68923,-749.15206)" />
    <linearGradient
       id="2"
       x1="-701.19"
       y1="647.77"
       x2="-704.05"
       y2="354.29"
       gradientUnits="userSpaceOnUse"
       gradientTransform="matrix(0.00963442,0,0,0.00963442,538.71258,153.50507)">
      <stop
         id="stop4535"
         stop-color="#9fd2fa" />
      <stop
         id="stop4537"
         stop-color="#cde8fe"
         offset="1" />
    </linearGradient>
    <linearGradient
       gradientTransform="matrix(0.40977578,0,0,0.40907594,385.56502,183.73148)"
       gradientUnits="userSpaceOnUse"
       y2="-37.783"
       x2="59.15"
       y1="-13.295"
       x1="59.12"
       id="0"
       xlink:href="#1" />
    <linearGradient
       id="1">
      <stop
         id="stop4541"
         stop-color="#289bf7" />
      <stop
         id="stop4543"
         stop-color="#71b9f1"
         offset="1" />
    </linearGradient>
  </defs>
  <g
     inkscape:label="status"
     transform="translate(-442,-156)"
     inkscape:groupmode="layer"
     id="layer9"
     style="display:inline" />
  <g
     inkscape:label="devices"
     transform="translate(-442,-156)"
     inkscape:groupmode="layer"
     id="layer10" />
  <g
     inkscape:label="apps"
     transform="translate(-442,-156)"
     inkscape:groupmode="layer"
     id="layer11" />
  <g
     inkscape:label="actions"
     transform="translate(-442,-156)"
     inkscape:groupmode="layer"
     id="layer12" />
  <g
     inkscape:label="places"
     transform="translate(-442,-156)"
     inkscape:groupmode="layer"
     id="layer13">
    <path
       id="path4401"
       d="M 460,156.75 A 17.25,17.25 0 0 0 442.75,174 17.25,17.25 0 0 0 460,191.25 17.25,17.25 0 0 0 477.25,174 17.25,17.25 0 0 0 460,156.75 Z m 0,1.91668 A 15.333333,15.333333 0 0 1 475.33333,174 15.333333,15.333333 0 0 1 460,189.33332 15.333333,15.333333 0 0 1 444.66667,174 15.333333,15.333333 0 0 1 460,158.66668 Z"
       style="opacity:1;fill:#000000;fill-opacity:0.63865548;stroke:none;stroke-width:0.95833325"
       inkscape:connector-curvature="0" />
    <path
       style="opacity:1;fill:#000000;fill-opacity:0.42500001;stroke:none;stroke-width:0.95833325"
       d="M 18 2.6660156 C 9.53164 2.6660156 2.6660256 9.53164 2.6660156 18 C 2.6660256 26.46836 9.53164 33.333984 18 33.333984 C 26.46836 33.333984 33.333974 26.46836 33.333984 18 C 33.333974 9.53164 26.46836 2.6660156 18 2.6660156 z M 14.078125 5.8632812 C 14.270845 5.8632812 14.467312 5.883375 14.664062 5.921875 C 16.242392 6.234275 17.277398 7.7712794 16.960938 9.3496094 C 16.648507 10.927939 15.105818 11.955008 13.523438 11.642578 C 11.945108 11.330158 10.918059 9.7931737 11.230469 8.2148438 C 11.465809 7.0300837 12.394129 6.153135 13.505859 5.921875 L 13.509766 5.921875 C 13.694376 5.884075 13.885295 5.8632812 14.078125 5.8632812 z M 17.785156 11.5625 C 17.973306 11.5669 18.157407 11.591866 18.335938 11.634766 L 22.353516 12.369141 C 22.471106 12.389901 22.581846 12.429622 22.691406 12.482422 L 25.615234 13.896484 C 26.276624 14.217024 26.556848 15.014411 26.236328 15.675781 C 26.005048 16.150501 25.528203 16.427734 25.033203 16.427734 C 24.838533 16.427734 24.639735 16.382269 24.453125 16.292969 L 21.695312 14.958984 L 20.466797 14.730469 L 21.412109 19.167969 C 21.428609 19.257329 21.445869 19.344294 21.417969 19.433594 L 23.119141 23.826172 L 26.710938 26.833984 C 27.380308 27.397964 27.468113 28.396772 26.908203 29.070312 C 26.595783 29.443613 26.145846 29.632812 25.691406 29.632812 C 25.330306 29.632812 24.970018 29.515242 24.673828 29.263672 L 20.773438 25.988281 C 20.570687 25.817831 20.4098 25.595156 20.3125 25.347656 L 19.097656 22.216797 C 19.073156 22.217187 19.040119 22.216797 19.011719 22.216797 L 16.619141 24.3125 L 15.943359 28.785156 C 15.825719 29.568236 15.151759 30.136719 14.380859 30.136719 C 14.299599 30.136719 14.214013 30.130641 14.132812 30.119141 C 13.268582 29.985361 12.68264 29.180626 12.8125 28.316406 L 13.574219 23.265625 C 13.630959 22.896405 13.815753 22.559846 14.095703 22.316406 L 16.419922 20.275391 C 16.419922 20.259191 16.41125 20.241503 16.40625 20.220703 L 15.501953 15.972656 L 14.298828 16.914062 C 14.173118 17.011403 14.02908 17.086066 13.875 17.134766 L 10.451172 18.207031 C 10.317382 18.211631 10.180641 18.275391 10.050781 18.275391 C 9.4827413 18.275391 8.9636863 17.905931 8.7851562 17.337891 C 8.5660262 16.635951 8.9523269 15.881239 9.6542969 15.662109 L 12.853516 14.666016 L 16.046875 12.169922 C 16.071375 12.149122 16.104413 12.132128 16.132812 12.111328 C 16.429002 11.876018 16.780248 11.706194 17.173828 11.621094 L 17.212891 11.615234 C 17.405631 11.575034 17.596936 11.5575 17.785156 11.5625 z "
       transform="translate(442,156)"
       id="circle4403" />
    <path
       style="color:#000000;font-style:normal;font-variant:normal;font-weight:normal;font-stretch:normal;font-size:medium;line-height:normal;font-family:sans-serif;font-variant-ligatures:normal;font-variant-position:normal;font-variant-caps:normal;font-variant-numeric:normal;font-variant-alternates:normal;font-feature-settings:normal;text-indent:0;text-align:start;text-decoration:none;text-decoration-line:none;text-decoration-style:solid;text-decoration-color:#000000;letter-spacing:normal;word-spacing:normal;text-transform:none;writing-mode:lr-tb;direction:ltr;text-orientation:mixed;dominant-baseline:auto;baseline-shift:baseline;text-anchor:start;white-space:normal;shape-padding:0;clip-rule:nonzero;display:inline;overflow:visible;visibility:visible;opacity:1;isolation:auto;mix-blend-mode:normal;color-interpolation:sRGB;color-interpolation-filters:linearRGB;solid-color:#000000;solid-opacity:1;vector-effect:none;fill:#000000;fill-opacity:0.22499999;fill-rule:nonzero;stroke:none;stroke-width:2;stroke-linecap:butt;stroke-linejoin:miter;stroke-miterlimit:4;stroke-dasharray:none;stroke-dashoffset:0;stroke-opacity:1;color-rendering:auto;image-rendering:auto;shape-rendering:auto;text-rendering:auto;enable-background:accumulate"
       d="M 14.078125 4.8632812 C 13.879405 4.8632812 13.690753 4.892575 13.501953 4.921875 L 13.402344 4.921875 L 13.310547 4.9414062 L 13.300781 4.9433594 C 11.804121 5.2546894 10.56484 6.4345512 10.25 8.0195312 C 9.8325 10.128761 11.219748 12.205317 13.330078 12.623047 C 13.506088 12.657847 13.673006 12.610794 13.847656 12.621094 L 12.380859 13.765625 L 9.3554688 14.707031 C 8.1296787 15.089681 7.4504681 16.420709 7.8300781 17.636719 C 8.1377881 18.615789 9.0496612 19.275391 10.050781 19.275391 C 10.504071 19.275391 10.642418 19.201731 10.486328 19.207031 L 10.621094 19.201172 L 14.175781 18.089844 L 14.175781 18.087891 C 14.419441 18.010891 14.645256 17.886565 14.853516 17.734375 L 15.318359 19.912109 L 13.439453 21.560547 C 12.979143 21.960817 12.678568 22.512454 12.585938 23.115234 L 11.824219 28.167969 C 11.615169 29.559169 12.583196 30.891432 13.978516 31.107422 L 13.986328 31.107422 L 13.992188 31.109375 C 14.113918 31.126575 14.242169 31.136719 14.380859 31.136719 C 15.642739 31.136719 16.740341 30.202887 16.931641 28.935547 L 16.931641 28.933594 L 17.552734 24.822266 L 18.658203 23.853516 L 19.380859 25.712891 L 19.382812 25.714844 C 19.541812 26.119284 19.796816 26.474726 20.128906 26.753906 L 24.027344 30.025391 C 24.511544 30.436641 25.112766 30.632812 25.691406 30.632812 C 26.424326 30.632812 27.167451 30.318318 27.675781 29.710938 L 27.675781 29.708984 L 27.677734 29.708984 C 28.580934 28.622504 28.435649 26.980432 27.355469 26.070312 L 27.353516 26.068359 L 23.958984 23.224609 L 22.388672 19.173828 C 22.380672 19.128428 22.398531 19.008298 22.394531 18.986328 L 22.392578 18.972656 L 21.783203 16.111328 L 24.019531 17.193359 L 24.021484 17.195312 C 24.338664 17.347093 24.681483 17.427734 25.033203 17.427734 C 25.902103 17.427734 26.735779 16.936241 27.136719 16.113281 L 27.136719 16.111328 C 27.694809 14.959738 27.198021 13.552114 26.050781 12.996094 L 23.126953 11.582031 L 23.125 11.580078 C 22.95156 11.496478 22.750264 11.424116 22.527344 11.384766 L 18.919922 10.724609 L 18.939453 10.591797 L 17.8125 10.5625 C 17.8115 10.56247 17.809594 10.56253 17.808594 10.5625 C 17.704404 10.5595 17.604833 10.584697 17.501953 10.591797 C 17.679733 10.260957 17.864796 9.932915 17.941406 9.546875 L 17.941406 9.5449219 C 18.363876 7.4321719 16.966432 5.3588362 14.857422 4.9414062 L 14.855469 4.9394531 C 14.600149 4.8894531 14.340385 4.8632812 14.078125 4.8632812 z M 14.078125 5.8632812 C 14.270845 5.8632812 14.467313 5.883375 14.664062 5.921875 C 16.242393 6.234275 17.277397 7.7712794 16.960938 9.3496094 C 16.648506 10.927939 15.105818 11.955008 13.523438 11.642578 C 11.945107 11.330158 10.918059 9.7931736 11.230469 8.2148438 C 11.465809 7.0300836 12.394129 6.153135 13.505859 5.921875 L 13.509766 5.921875 C 13.694376 5.884075 13.885295 5.8632813 14.078125 5.8632812 z M 17.785156 11.5625 C 17.973306 11.5669 18.157407 11.591866 18.335938 11.634766 L 22.353516 12.369141 C 22.471106 12.389901 22.581846 12.429622 22.691406 12.482422 L 25.615234 13.896484 C 26.276624 14.217024 26.556848 15.014411 26.236328 15.675781 C 26.005048 16.150501 25.528203 16.427734 25.033203 16.427734 C 24.838533 16.427734 24.639735 16.382269 24.453125 16.292969 L 21.695312 14.958984 L 20.466797 14.730469 L 21.412109 19.167969 C 21.428609 19.257329 21.445869 19.344294 21.417969 19.433594 L 23.119141 23.826172 L 26.710938 26.833984 C 27.380308 27.397964 27.468113 28.396772 26.908203 29.070312 C 26.595783 29.443613 26.145846 29.632812 25.691406 29.632812 C 25.330306 29.632812 24.970018 29.515242 24.673828 29.263672 L 20.773438 25.988281 C 20.570687 25.817831 20.4098 25.595156 20.3125 25.347656 L 19.097656 22.216797 C 19.073156 22.217187 19.040119 22.216797 19.011719 22.216797 L 16.619141 24.3125 L 15.943359 28.785156 C 15.825719 29.568236 15.151759 30.136719 14.380859 30.136719 C 14.299599 30.136719 14.214014 30.130641 14.132812 30.119141 C 13.268583 29.985361 12.68264 29.180626 12.8125 28.316406 L 13.574219 23.265625 C 13.630959 22.896405 13.815753 22.559846 14.095703 22.316406 L 16.419922 20.275391 C 16.419922 20.259191 16.41125 20.241503 16.40625 20.220703 L 15.501953 15.972656 L 14.298828 16.914062 C 14.173118 17.011404 14.02908 17.086066 13.875 17.134766 L 10.451172 18.207031 C 10.317382 18.211631 10.180641 18.275391 10.050781 18.275391 C 9.4827416 18.275391 8.9636863 17.905931 8.7851562 17.337891 C 8.5660263 16.635951 8.9523269 15.881239 9.6542969 15.662109 L 12.853516 14.666016 L 16.046875 12.169922 C 16.071375 12.149122 16.104413 12.132128 16.132812 12.111328 C 16.429002 11.876018 16.780248 11.706194 17.173828 11.621094 L 17.212891 11.615234 C 17.405631 11.575034 17.596936 11.5575 17.785156 11.5625 z "
       transform="translate(442,156)"
       id="path4610" />
  </g>
  <g
     inkscape:label="mimetypes"
     transform="translate(-442,-156)"
     inkscape:groupmode="layer"
     id="layer14" />
  <g
     inkscape:label="emblems"
     transform="translate(-442,-156)"
     inkscape:groupmode="layer"
     id="layer15"
     style="display:inline" />
</svg>
